X: 1
T: Belfast Boys
T: Boys of Belfast
R: reel
N: Possibly a relative of Campbell's Farewell to Redcastle
S: Printed page of unknown origin.
Z: 2019 John Chambers <jc:trillian.mit.edu>
M: 2/4
L: 1/16
K: Amix=g
E2 |\
AGAB cBcd | efgf e2ed | c2A2 A2fe | dedB G2E2 | AGAB cBcd |
e2a2 e3d |1 c2ec dBGB | A4 A2 :|2 cBAc dBGB | c2A2 A2 |: z2 | e4 e2fe | d2d2 d2ed |
c2A2 A2fe | dedB G2E2 | AGAB cBcd | e2a2 e3d | c2ec dBGB | A4 A2 :|
